X:1
T:Echoes from Heaven
T:Echoes from Heaven
T:Thomas R. Sweatmon
T:Thomas R. Sweatmon, 1918
T:Public Domain Courtesy of the Cyber Hymnal™
T:Public Domain Courtesy of the Cyber Hymnal™
C:Thomas R. Sweatmon
Z:Public Domain
Z:Courtesy of the Cyber Hymnal™
%%score ( 1 2 ) ( 3 4 )
L:1/8
Q:1/4=95
M:4/4
K:Eb
V:1 treble 
V:2 treble 
V:3 bass 
V:4 bass 
V:1
 [B,E][B,F] | [EG] [EG]2 [EG] [B,F][B,E][B,E][EG] | [GB] [GB]2 [Ac] [GB]2 [B,E][B,F] | %3
w: 1.~As I|la- bor for Je- sus in His|vine- yard be- low, Grow- ing|
w: 2.~I am|near- ing fair Ca- naan as I|jour- ney each day, There no|
w: 3.~When I|en- ter the pear- ly gates all|shin- ing with gold, And I’m|
 [EG] [EG]2 [EG] [EB][EG][DF]E | [EF] [EF]2 [EG] !fermata![DF]2 [B,E][B,F] | %5
w: wea- ry, my foot- steps are so|fee- ble, and slow; But the|
w: trea- sures so pre- cious that could|tempt me to stay; For my|
w: view- ing Heav’n’s beau- ties that have|ne- ver been told, I’ll be|
 [EG] [EG]2 [EG] [EB][EG][DF]E | [Ee] [Ae]2 [Ac] [GB]2 [EG][GB] | [Ac] [Ae]2 [Ac] [GB][EG][EF]E | %8
w: ech- oes from Hea- ven come to|com- fort me then, And I’m|long- ing to hear those heav’n- ly|
w: spir- it is long- ing for the|man- sions on high, And the|ech- oes are call- ing me from|
w: long- ing for Je- sus and to|kneel at His feet, While the|voic- es of an- gels ech- o|
 [DG] [DG]2 [DF] !fermata!E2 ||"^Refrain" [EG][EB] | [Ge] [Ge]2 [Ge] [Fd][Ge][Af][Af] | %11
w: ech- oes a- gain.|||
w: o- ver the sky.|Oh! the|e- cho from Hea- ven reach- es|
w: ’round me so sweet.|||
 e6 [B,E][B,F] | [EG] [GB]2 [GB] [Ac][GB][EG]E | [EF] [EF]2 [EG] !fermata![DF]2 [B,E][B,F] | %14
w: |||
w: me, Oh! the|an- gels’ sweet voic- es are so|pleas- ing to me. I will|
w: |||
 [EG] [EG]2 [EG] [EB][EG][DF]E | [Ee] [Ae]2 [Ac] [GB]2 [EG][GB] | [Ac] [Ae]2 [Ac] [GB][EG][EF]E | %17
w: |||
w: la- bor for Je- sus and the|glo- ry of men, While the|ech- oes from Hea- ven doth my|
w: |||
 [DG] [DG]2 [DF] !fermata!E2 |] %18
w: |
w: path- way at- tend.|
w: |
V:2
 x2 | x8 | x8 | x7 E | x8 | x7 E | x8 | x7 E | x4 E2 || x2 | x8 | (G2 AA G2) x2 | x7 E | x8 | %14
 x7 E | x8 | x7 E | x4 E2 |] %18
V:3
 [E,G,][E,A,] | [E,B,] [E,B,]2 [E,B,] [E,A,][E,G,][E,G,][E,B,] | %2
w: ~ ~|~ ~ ~ ~ ~ ~ ~|
 [E,E] [E,E]2 [E,E] [E,E]2 [E,G,][E,A,] | [E,B,] [E,B,]2 [E,B,] [E,G,][E,B,][F,B,][G,B,] | %4
w: ~ ~ ~ ~ ~ ~|~ ~ ~ ~ ~ ~ ~|
 [F,=A,] [F,A,]2 [F,A,] !fermata![B,,B,]2 [E,G,][E,_A,] | %5
w: ~ ~ ~ ~ ~ ~|
 [E,B,] [E,B,]2 [E,B,] [E,G,][E,B,][F,B,][G,B,] | [A,C] [A,C]2 [A,E] [E,E]2 [E,B,][E,E] | %7
w: ~ ~ ~ ~ ~ ~ ~|~ ~ ~ ~ ~ ~|
 [E,E] [A,C]2 [A,E] [E,E][E,B,][C,=A,][C,A,] | [B,,B,] [B,,B,]2 [B,,A,] !fermata![E,G,]2 || %9
w: ~ ~ ~ ~ ~ ~ ~|~ ~ ~ ~|
 [E,B,][E,G,] | [E,B,] [E,B,]2 [G,B,] B,B,B,B, | [E,B,]2 [A,C][A,C] [E,B,]2 [E,G,][E,A,] | %12
w: ~ ~|~ ~ ~ ~ ~ ~ ~|~ reach- es me, * *|
 [E,B,] [E,E]2 [E,E] [E,E][E,E][E,B,][G,B,] | %13
w: |
 [F,=A,] [F,A,]2 [F,A,] !fermata![B,,B,]2 [E,G,][E,_A,] | %14
w: |
 [E,B,] [E,B,]2 [E,B,] [E,G,][E,B,][F,B,][G,B,] | [A,C] [A,C]2 [A,E] [E,E]2 [E,B,][E,E] | %16
w: ||
 [E,E] [A,C]2 [A,E] [E,E][E,B,][C,=A,][C,A,] | [B,,B,] [B,,B,]2 [B,,A,] !fermata![E,G,]2 |] %18
w: ||
V:4
 x2 | x8 | x8 | x8 | x8 | x8 | x8 | x8 | x6 || x2 | x4 B,B,B,B, | x8 | x8 | x8 | x8 | x8 | x8 | %17
 x6 |] %18

